X: 12837
T: Fem Får Og Fire Geder
R: polka
M: 2/4
K: Fmajor
A2 A2|AG GF|F/G/A/G/ F/G/A/B/|AG GF|cC DE|F2 F2:|
|:c2 c2|cB BA|A/B/c/B/ A/B/c/d/|cB BA|AG/F/ G2|AG/F/ G2|A/B/c/d/ cB/A/|G3 F:|
|:A2 A2|AG GF|F/G/A/G/ F/G/A/B/|AG GF|c2 AG/A/|1 F2 F>G:|2 F2 F/G/A/B/||
|:c2 c2|cB BA|A/B/c/B/ A/B/c/d/|cB BA|AG/F/ G2|
AB/A/ G2|A/G/A/B/ cB/A/|1 GG F/G/A/B/:|2 GG F>G||

